Newaita-dark/apps/24/bittorrent-sync.svg

<svg height="24" viewBox="0 0 24 24" width="24" xmlns="http://www.w3.org/2000/svg" xmlns:xlink="http://www.w3.org/1999/xlink"><linearGradient id="a"><stop offset="0" stop-opacity=".313726"/><stop offset=".222222" stop-opacity=".27451"/><stop offset="1" stop-opacity="0"/></linearGradient><radialGradient id="b" cx="450.908936" cy="189.579361" gradientTransform="matrix(.00000013 -.0585994 -.105479 -.00000008 33.392364 47.696497)" gradientUnits="userSpaceOnUse" r="21.166656" xlink:href="#a"/><radialGradient id="c" cx="450.908936" cy="189.579361" gradientTransform="matrix(-.00000013 .0585994 .105479 .00000008 -9.577589 -5.645612)" gradientUnits="userSpaceOnUse" r="21.166656" xlink:href="#a"/><radialGradient id="d" cx="450.908936" cy="189.579361" gradientTransform="matrix(-.00000013 -.0585994 .105479 -.00000008 -9.577589 47.696497)" gradientUnits="userSpaceOnUse" r="21.166656" xlink:href="#a"/><radialGradient id="e" cx="450.908936" cy="189.579361" gradientTransform="matrix(.00000013 .0585994 -.105479 .00000008 33.392362 -5.645612)" gradientUnits="userSpaceOnUse" r="21.166656" xlink:href="#a"/><linearGradient id="f" gradientTransform="matrix(.01002 0 0 .0468795 9.34904 10.079088)" gradientUnits="userSpaceOnUse" x1="255.323059" x2="255.323044" y1="233.5" y2="254.666656"><stop offset="0" stop-opacity=".27451"/><stop offset="1" stop-opacity="0"/></linearGradient><linearGradient id="g" gradientUnits="userSpaceOnUse" x1="254" x2="254" y1="-168.666672" y2="233.5"><stop offset="0" stop-color="#7986cb"/><stop offset="1" stop-color="#5c6bc0"/></linearGradient><linearGradient id="h" gradientUnits="userSpaceOnUse" x1="11.90736" x2="11.90736" y1="21.02539814717" y2="2.17207777507"><stop offset="0" stop-color="#26c6da"/><stop offset="1" stop-color="#4dd0e1"/></linearGradient><path d="m13.644531 21.027344h1.984375v-.996094h-1.984375zm0 0" fill="url(#b)"/><path d="m10.171875 21.027344h-1.984375v.992187h1.984375zm0 0" fill="url(#c)"/><path d="m10.171875 21.027344h-1.984375v-.996094h1.984375zm0 0" fill="url(#d)"/><path d="m13.644531 21.027344h1.984375v.992187h-1.984375zm0 0" fill="url(#e)"/><path d="m10.171875 20.777344h3.472656v1.242187h-3.472656zm0 0" fill="url(#f)"/><path d="m253.975747-168.671091c111.072726 0 201.147458 89.991406 201.147458 201.064133 0 111.072726-90.074732 201.147458-201.147458 201.147458-110.989402 0-201.064133-90.074732-201.064133-201.147458 0-111.072727 90.074731-201.064133 201.064133-201.064133zm0 0" fill="url(#g)" stroke="#333" stroke-linecap="round" stroke-width="3" transform="matrix(.0468795 0 0 .0468795 0 10.079087)"/><path d="m11.90625 21.027344c-5.222656 0-9.425781-4.207032-9.425781-9.429688 0-.03125 0-.058594 0-.089844.050781 5.179688 4.234375 9.332032 9.425781 9.332032s9.378906-4.152344 9.425781-9.332032c0 .03125.003907.058594.003907.089844 0 5.222656-4.207032 9.429688-9.429688 9.429688zm0 0" fill-opacity=".196078"/><path d="m11.90625 2.171875c-5.222656 0-9.425781 4.203125-9.425781 9.425781v.09375c.050781-5.179687 4.234375-9.335937 9.425781-9.335937s9.378906 4.15625 9.425781 9.335937c0-.03125.003907-.0625.003907-.09375 0-5.222656-4.207032-9.425781-9.429688-9.425781zm0 0" fill="#fff" fill-opacity=".392157"/><path d="m11.90625 2.101562c-5.257812 0-9.496094 4.238282-9.496094 9.496094 0 5.261719 4.238282 9.5 9.496094 9.5 5.261719 0 9.5-4.238281 9.5-9.5 0-5.257812-4.238281-9.496094-9.5-9.496094zm0 .140626c5.1875 0 9.359375 4.171874 9.359375 9.355468 0 5.1875-4.171875 9.359375-9.359375 9.359375-5.183594 0-9.355469-4.171875-9.355469-9.359375 0-5.183594 4.171875-9.355468 9.355469-9.355468zm0 0" fill="#212121"/><path d="m11.878906 4.707031c-1.167968.007813-2.355468.308594-3.445312.9375-2.734375 1.578125-3.988282 4.710938-3.285156 7.628907.125.785156 1.660156.472656 1.359374-.789063-.332031-2.15625.660157-4.390625 2.671876-5.550781 2.011718-1.160156 4.4375-.902344 6.140624.464844.941407.890624 1.980469-.285157 1.363282-.785157-1.308594-1.242187-3.039063-1.914062-4.804688-1.90625zm6.257813 4.914063c-.460938-.011719-1.023438.40625-.832031 1.214844.335937 2.160156-.65625 4.390624-2.667969 5.550781-2.011719 1.160156-4.441407.90625-6.144531-.464844-.9375-.886719-1.980469.285156-1.359376.789063 2.171876 2.0625 5.511719 2.542968 8.246094.964843s3.992188-4.710937 3.289063-7.625c-.046875-.285156-.273438-.425781-.53125-.429687zm0 0" fill="url(#h)"/><path d="m11.878906 4.707031c-1.167968.007813-2.355468.308594-3.445312.9375-2.289063 1.320313-3.539063 3.730469-3.476563 6.191407.0625-2.335938 1.300781-4.578126 3.476563-5.835938 1.089844-.628906 2.277344-.929688 3.445312-.9375 1.765625-.007812 3.496094.664062 4.804688 1.90625.074218.058594.125.128906.15625.207031.066406-.199219.03125-.414062-.15625-.5625-1.308594-1.242187-3.039063-1.914062-4.804688-1.90625zm6.234375 4.914063c-.429687 0-.9375.375-.832031 1.085937.082031-.488281.496094-.738281.855469-.730469.257812.003907.484375.144532.53125.429688.113281.472656.175781.957031.1875 1.4375.015625-.597656-.042969-1.199219-.1875-1.792969-.046875-.285156-.273438-.425781-.53125-.429687-.007813 0-.015625 0-.023438 0zm-11.664062 2.210937c-.011719.335938.007812.671875.058593 1.007813.011719.046875.019532.089844.027344.132812.023438-.144531.015625-.304687-.027344-.488281-.03125-.214844-.050781-.433594-.058593-.652344zm10.917969.011719c-.0625 1.820312-1.03125 3.5625-2.730469 4.542969-2.011719 1.160156-4.441407.90625-6.144531-.464844-.824219-.78125-1.730469.03125-1.515626.578125.15625-.457031.859376-.839844 1.515626-.222656 1.703124 1.371094 4.132812 1.625 6.144531.464844 1.808593-1.042969 2.792969-2.953126 2.730469-4.898438zm0 0" fill="#fff" fill-opacity=".392157"/><path d="m11.859375 6.214844c-.910156.007812-1.832031.246094-2.679687.734375-1.832032 1.058593-2.820313 3.003906-2.726563 4.972656.078125-1.792969 1.046875-3.507813 2.726563-4.476563 2.011718-1.160156 4.4375-.902343 6.140624.464844.859376.8125 1.804688-.097656 1.488282-.640625-.203125.421875-.867188.730469-1.488282.144531-.984374-.789062-2.210937-1.210937-3.460937-1.199218zm5.433594 4.582031c-.035157.15625-.039063.339844.011719.550781.03125.195313.050781.386719.058593.582032.015625-.359376-.003906-.71875-.058593-1.078126-.003907-.019531-.007813-.035156-.011719-.054687zm-12.332031 1.125c-.023438.621094.039062 1.246094.1875 1.863281.121093.777344 1.617187.480469 1.371093-.734375-.183593.785157-1.269531.894531-1.371093.238281-.109376-.453124-.171876-.910156-.1875-1.367187zm13.894531.007813c-.082031 2.308593-1.320313 4.519531-3.476563 5.761718-2.734375 1.582032-6.074218 1.101563-8.246094-.964844-.054687-.042968-.09375-.09375-.125-.144531-.105468.21875-.085937.46875.125.640625 2.171876 2.066406 5.511719 2.546875 8.246094.964844 2.3125-1.332031 3.566406-3.773438 3.476563-6.257812zm0 0" fill-opacity=".235294"/><path d="m957.70387 379.491339c-94.164241.629862-189.903135 24.879516-277.768765 75.583338-220.4514 127.231951-321.544114 379.80627-264.856611 615.059407 10.077778 63.301045 133.845493 38.106599 109.595839-63.615976-26.769098-173.841675 53.223267-353.981963 215.412511-447.516343 162.189245-93.534379 357.76113-72.748962 495.07086 37.476739 75.898268 71.80417 159.6698-22.989932 109.910769-63.301045-105.501741-100.147922-245.015985-154.315981-387.364603-153.68612zm504.518776 396.18266c-37.161807-.944792-82.51181 32.75278-67.080212 97.943408 27.08403 174.156606-52.908336 353.981963-215.09758 447.516343-162.189245 93.53438-358.076061 73.063893-495.38579-37.476738-75.583338-71.48924-159.6698 22.989932-109.595839 63.615975 175.101398 166.283343 444.367037 205.019803 664.818437 77.787852 220.451401-127.231951 321.859045-379.80627 265.171542-614.744477-3.779167-22.989932-22.04514-34.327432-42.830558-34.642363zm0 0" fill="none" stroke="#212121" stroke-linecap="round" stroke-linejoin="round" stroke-width="11.338583" transform="scale(.0124035)"/></svg>

<?xml version="1.0" encoding="UTF-8"?>
<svg xmlns="http://www.w3.org/2000/svg" xmlns:xlink="http://www.w3.org/1999/xlink" width="24px" height="24px" viewBox="0 0 24 24" version="1.1">
<defs>
<radialGradient id="radial0" gradientUnits="userSpaceOnUse" cx="450.908936" cy="189.579361" fx="450.908936" fy="189.579361" r="21.166656" gradientTransform="matrix(0.000000130628,-0.0585994,-0.105479,-0.0000000761539,33.392364,47.696497)">
<stop offset="0" style="stop-color:rgb(0%,0%,0%);stop-opacity:0.313726;"/>
<stop offset="0.222222" style="stop-color:rgb(0%,0%,0%);stop-opacity:0.27451;"/>
<stop offset="1" style="stop-color:rgb(0%,0%,0%);stop-opacity:0;"/>
</radialGradient>
<radialGradient id="radial1" gradientUnits="userSpaceOnUse" cx="450.908936" cy="189.579361" fx="450.908936" fy="189.579361" r="21.166656" gradientTransform="matrix(-0.000000130628,0.0585994,0.105479,0.0000000761539,-9.577589,-5.645612)">
<stop offset="0" style="stop-color:rgb(0%,0%,0%);stop-opacity:0.313726;"/>
<stop offset="0.222222" style="stop-color:rgb(0%,0%,0%);stop-opacity:0.27451;"/>
<stop offset="1" style="stop-color:rgb(0%,0%,0%);stop-opacity:0;"/>
</radialGradient>
<radialGradient id="radial2" gradientUnits="userSpaceOnUse" cx="450.908936" cy="189.579361" fx="450.908936" fy="189.579361" r="21.166656" gradientTransform="matrix(-0.000000130628,-0.0585994,0.105479,-0.0000000761539,-9.577589,47.696497)">
<stop offset="0" style="stop-color:rgb(0%,0%,0%);stop-opacity:0.313726;"/>
<stop offset="0.222222" style="stop-color:rgb(0%,0%,0%);stop-opacity:0.27451;"/>
<stop offset="1" style="stop-color:rgb(0%,0%,0%);stop-opacity:0;"/>
</radialGradient>
<radialGradient id="radial3" gradientUnits="userSpaceOnUse" cx="450.908936" cy="189.579361" fx="450.908936" fy="189.579361" r="21.166656" gradientTransform="matrix(0.000000130628,0.0585994,-0.105479,0.0000000761539,33.392362,-5.645612)">
<stop offset="0" style="stop-color:rgb(0%,0%,0%);stop-opacity:0.313726;"/>
<stop offset="0.222222" style="stop-color:rgb(0%,0%,0%);stop-opacity:0.27451;"/>
<stop offset="1" style="stop-color:rgb(0%,0%,0%);stop-opacity:0;"/>
</radialGradient>
<linearGradient id="linear0" gradientUnits="userSpaceOnUse" x1="255.323059" y1="233.5" x2="255.323044" y2="254.666656" gradientTransform="matrix(0.01002,0,0,0.0468795,9.34904,10.079088)">
<stop offset="0" style="stop-color:rgb(0%,0%,0%);stop-opacity:0.27451;"/>
<stop offset="1" style="stop-color:rgb(0%,0%,0%);stop-opacity:0;"/>
</linearGradient>
<linearGradient id="linear1" gradientUnits="userSpaceOnUse" x1="254" y1="-168.666672" x2="254" y2="233.5" gradientTransform="matrix(1,0,0,1,0,0)">
<stop offset="0" style="stop-color:rgb(47.450981%,52.549022%,79.607844%);stop-opacity:1;"/>
<stop offset="1" style="stop-color:rgb(36.078432%,41.960785%,75.294119%);stop-opacity:1;"/>
</linearGradient>
<linearGradient id="linear2" gradientUnits="userSpaceOnUse" x1="960" y1="1695.118164" x2="960" y2="175.118134" gradientTransform="matrix(0.0124035,0,0,0.0124035,0,0.00000000000000141)">
<stop offset="0" style="stop-color:rgb(14.901961%,77.64706%,85.490197%);stop-opacity:1;"/>
<stop offset="1" style="stop-color:rgb(30.19608%,81.568629%,88.235295%);stop-opacity:1;"/>
</linearGradient>
</defs>
<g id="surface1">
<path style=" stroke:none;fill-rule:nonzero;fill:url(#radial0);" d="M 13.644531 21.027344 L 15.628906 21.027344 L 15.628906 20.03125 L 13.644531 20.03125 Z M 13.644531 21.027344 "/>
<path style=" stroke:none;fill-rule:nonzero;fill:url(#radial1);" d="M 10.171875 21.027344 L 8.1875 21.027344 L 8.1875 22.019531 L 10.171875 22.019531 Z M 10.171875 21.027344 "/>
<path style=" stroke:none;fill-rule:nonzero;fill:url(#radial2);" d="M 10.171875 21.027344 L 8.1875 21.027344 L 8.1875 20.03125 L 10.171875 20.03125 Z M 10.171875 21.027344 "/>
<path style=" stroke:none;fill-rule:nonzero;fill:url(#radial3);" d="M 13.644531 21.027344 L 15.628906 21.027344 L 15.628906 22.019531 L 13.644531 22.019531 Z M 13.644531 21.027344 "/>
<path style=" stroke:none;fill-rule:nonzero;fill:url(#linear0);" d="M 10.171875 20.777344 L 13.644531 20.777344 L 13.644531 22.019531 L 10.171875 22.019531 Z M 10.171875 20.777344 "/>
<path style="fill-rule:nonzero;fill:url(#linear1);stroke-width:3;stroke-linecap:round;stroke-linejoin:miter;stroke:rgb(20%,20%,20%);stroke-opacity:1;stroke-miterlimit:4;" d="M 253.975747 -168.671091 C 365.048473 -168.671091 455.123205 -78.679685 455.123205 32.393042 C 455.123205 143.465768 365.048473 233.5405 253.975747 233.5405 C 142.986345 233.5405 52.911614 143.465768 52.911614 32.393042 C 52.911614 -78.679685 142.986345 -168.671091 253.975747 -168.671091 Z M 253.975747 -168.671091 " transform="matrix(0.0468795,0,0,0.0468795,0,10.079087)"/>
<path style=" stroke:none;fill-rule:nonzero;fill:rgb(0%,0%,0%);fill-opacity:0.196078;" d="M 11.90625 21.027344 C 6.683594 21.027344 2.480469 16.820312 2.480469 11.597656 C 2.480469 11.566406 2.480469 11.539062 2.480469 11.507812 C 2.53125 16.6875 6.714844 20.839844 11.90625 20.839844 C 17.097656 20.839844 21.285156 16.6875 21.332031 11.507812 C 21.332031 11.539062 21.335938 11.566406 21.335938 11.597656 C 21.335938 16.820312 17.128906 21.027344 11.90625 21.027344 Z M 11.90625 21.027344 "/>
<path style=" stroke:none;fill-rule:nonzero;fill:rgb(100%,100%,100%);fill-opacity:0.392157;" d="M 11.90625 2.171875 C 6.683594 2.171875 2.480469 6.375 2.480469 11.597656 C 2.480469 11.628906 2.480469 11.660156 2.480469 11.691406 C 2.53125 6.511719 6.714844 2.355469 11.90625 2.355469 C 17.097656 2.355469 21.285156 6.511719 21.332031 11.691406 C 21.332031 11.660156 21.335938 11.628906 21.335938 11.597656 C 21.335938 6.375 17.128906 2.171875 11.90625 2.171875 Z M 11.90625 2.171875 "/>
<path style=" stroke:none;fill-rule:nonzero;fill:rgb(12.941177%,12.941177%,12.941177%);fill-opacity:1;" d="M 11.90625 2.101562 C 6.648438 2.101562 2.410156 6.339844 2.410156 11.597656 C 2.410156 16.859375 6.648438 21.097656 11.90625 21.097656 C 17.167969 21.097656 21.40625 16.859375 21.40625 11.597656 C 21.40625 6.339844 17.167969 2.101562 11.90625 2.101562 Z M 11.90625 2.242188 C 17.09375 2.242188 21.265625 6.414062 21.265625 11.597656 C 21.265625 16.785156 17.09375 20.957031 11.90625 20.957031 C 6.722656 20.957031 2.550781 16.785156 2.550781 11.597656 C 2.550781 6.414062 6.722656 2.242188 11.90625 2.242188 Z M 11.90625 2.242188 "/>
<path style=" stroke:none;fill-rule:nonzero;fill:url(#linear2);" d="M 11.878906 4.707031 C 10.710938 4.714844 9.523438 5.015625 8.433594 5.644531 C 5.699219 7.222656 4.445312 10.355469 5.148438 13.273438 C 5.273438 14.058594 6.808594 13.746094 6.507812 12.484375 C 6.175781 10.328125 7.167969 8.09375 9.179688 6.933594 C 11.191406 5.773438 13.617188 6.03125 15.320312 7.398438 C 16.261719 8.289062 17.300781 7.113281 16.683594 6.613281 C 15.375 5.371094 13.644531 4.699219 11.878906 4.707031 Z M 18.136719 9.621094 C 17.675781 9.609375 17.113281 10.027344 17.304688 10.835938 C 17.640625 12.996094 16.648438 15.226562 14.636719 16.386719 C 12.625 17.546875 10.195312 17.292969 8.492188 15.921875 C 7.554688 15.035156 6.511719 16.207031 7.132812 16.710938 C 9.304688 18.773438 12.644531 19.253906 15.378906 17.675781 C 18.113281 16.097656 19.371094 12.964844 18.667969 10.050781 C 18.621094 9.765625 18.394531 9.625 18.136719 9.621094 Z M 18.136719 9.621094 "/>
<path style=" stroke:none;fill-rule:nonzero;fill:rgb(100%,100%,100%);fill-opacity:0.392157;" d="M 11.878906 4.707031 C 10.710938 4.714844 9.523438 5.015625 8.433594 5.644531 C 6.144531 6.964844 4.894531 9.375 4.957031 11.835938 C 5.019531 9.5 6.257812 7.257812 8.433594 6 C 9.523438 5.371094 10.710938 5.070312 11.878906 5.0625 C 13.644531 5.054688 15.375 5.726562 16.683594 6.96875 C 16.757812 7.027344 16.808594 7.097656 16.839844 7.175781 C 16.90625 6.976562 16.871094 6.761719 16.683594 6.613281 C 15.375 5.371094 13.644531 4.699219 11.878906 4.707031 Z M 18.113281 9.621094 C 17.683594 9.621094 17.175781 9.996094 17.28125 10.707031 C 17.363281 10.21875 17.777344 9.96875 18.136719 9.976562 C 18.394531 9.980469 18.621094 10.121094 18.667969 10.40625 C 18.78125 10.878906 18.84375 11.363281 18.855469 11.84375 C 18.871094 11.246094 18.8125 10.644531 18.667969 10.050781 C 18.621094 9.765625 18.394531 9.625 18.136719 9.621094 C 18.128906 9.621094 18.121094 9.621094 18.113281 9.621094 Z M 6.449219 11.832031 C 6.4375 12.167969 6.457031 12.503906 6.507812 12.839844 C 6.519531 12.886719 6.527344 12.929688 6.535156 12.972656 C 6.558594 12.828125 6.550781 12.667969 6.507812 12.484375 C 6.476562 12.269531 6.457031 12.050781 6.449219 11.832031 Z M 17.367188 11.84375 C 17.304688 13.664062 16.335938 15.40625 14.636719 16.386719 C 12.625 17.546875 10.195312 17.292969 8.492188 15.921875 C 7.667969 15.140625 6.761719 15.953125 6.976562 16.5 C 7.132812 16.042969 7.835938 15.660156 8.492188 16.277344 C 10.195312 17.648438 12.625 17.902344 14.636719 16.742188 C 16.445312 15.699219 17.429688 13.789062 17.367188 11.84375 Z M 17.367188 11.84375 "/>
<path style=" stroke:none;fill-rule:nonzero;fill:rgb(0%,0%,0%);fill-opacity:0.235294;" d="M 11.859375 6.214844 C 10.949219 6.222656 10.027344 6.460938 9.179688 6.949219 C 7.347656 8.007812 6.359375 9.953125 6.453125 11.921875 C 6.53125 10.128906 7.5 8.414062 9.179688 7.445312 C 11.191406 6.285156 13.617188 6.542969 15.320312 7.910156 C 16.179688 8.722656 17.125 7.8125 16.808594 7.269531 C 16.605469 7.691406 15.941406 8 15.320312 7.414062 C 14.335938 6.625 13.109375 6.203125 11.859375 6.214844 Z M 17.292969 10.796875 C 17.257812 10.953125 17.253906 11.136719 17.304688 11.347656 C 17.335938 11.542969 17.355469 11.734375 17.363281 11.929688 C 17.378906 11.570312 17.359375 11.210938 17.304688 10.851562 C 17.300781 10.832031 17.296875 10.816406 17.292969 10.796875 Z M 4.960938 11.921875 C 4.9375 12.542969 5 13.167969 5.148438 13.785156 C 5.269531 14.5625 6.765625 14.265625 6.519531 13.050781 C 6.335938 13.835938 5.25 13.945312 5.148438 13.289062 C 5.039062 12.835938 4.976562 12.378906 4.960938 11.921875 Z M 18.855469 11.929688 C 18.773438 14.238281 17.535156 16.449219 15.378906 17.691406 C 12.644531 19.273438 9.304688 18.792969 7.132812 16.726562 C 7.078125 16.683594 7.039062 16.632812 7.007812 16.582031 C 6.902344 16.800781 6.921875 17.050781 7.132812 17.222656 C 9.304688 19.289062 12.644531 19.769531 15.378906 18.1875 C 17.691406 16.855469 18.945312 14.414062 18.855469 11.929688 Z M 18.855469 11.929688 "/>
<path style="fill:none;stroke-width:11.338583;stroke-linecap:round;stroke-linejoin:round;stroke:rgb(12.941177%,12.941177%,12.941177%);stroke-opacity:1;stroke-miterlimit:4;" d="M 957.70387 379.491339 C 863.539629 380.121201 767.800735 404.370855 679.935105 455.074677 C 459.483705 582.306628 358.390991 834.880947 415.078494 1070.134084 C 425.156272 1133.435129 548.923987 1108.240683 524.674333 1006.518108 C 497.905235 832.676433 577.8976 652.536145 740.086844 559.001765 C 902.276089 465.467386 1097.847974 486.252803 1235.157704 596.478504 C 1311.055972 668.282674 1394.827504 573.488572 1345.068473 533.177459 C 1239.566732 433.029537 1100.052488 378.861478 957.70387 379.491339 Z M 1462.222646 775.673999 C 1425.060839 774.729207 1379.710836 808.426779 1395.142434 873.617407 C 1422.226464 1047.774013 1342.234098 1227.59937 1180.044854 1321.13375 C 1017.855609 1414.66813 821.968793 1394.197643 684.659064 1283.657012 C 609.075726 1212.167772 524.989264 1306.646944 575.063225 1347.272987 C 750.164623 1513.55633 1019.430262 1552.29279 1239.881662 1425.060839 C 1460.333063 1297.828888 1561.740707 1045.254569 1505.053204 810.316362 C 1501.274037 787.32643 1483.008064 775.98893 1462.222646 775.673999 Z M 1462.222646 775.673999 " transform="matrix(0.0124035,0,0,0.0124035,0,0)"/>
</g>
</svg>
